build/img/icons/svg/mining.svg

<svg xmlns="http://www.w3.org/2000/svg" viewBox="0 0 40 35.71"><defs><style>.cls-1{fill:#fff}</style></defs><g id="Layer_2" data-name="Layer 2"><g id="Режим_изоляции" data-name="Режим изоляции"><g id="coin-7"><path class="cls-1" d="M20 33.84v.45H8.57V30h8.5a14 14 0 0 1-.61-1.43H5.71v-4.28h10a13.39 13.39 0 0 1 .09-1.43H7.14v-4.29h9.93a13.54 13.54 0 0 1 .82-1.43H8.57v-4.28H20v1.87a12 12 0 0 1 1.43-1.13v-.74h1.28a12.84 12.84 0 0 1 4.43-1.35v-5.8h-2.85V0H1.43v7.14h2.86v4.29H2.86v5.71H1.43v5.72H0V30h2.86v5.71h19.85A12.34 12.34 0 0 1 20 33.84zM10 11.43V7.14h11.43v4.29zm15.71-4.29v4.29h-2.85V7.14h2.85zm-2.85-5.71v4.28H20V1.43zm-4.29 0v4.28H7.14V1.43zM2.86 5.71V1.43h2.85v4.28H2.86zm2.85 1.43h2.86v4.29H5.71zm-1.42 5.72h2.85v4.28H4.29zm-1.43 5.71h2.85v4.29H2.86zm-1.43 10v-4.28h2.86v4.28H1.43zm2.86 5.72V30h2.85v4.29z"/><path class="cls-1" d="M28.57 12.86A11.43 11.43 0 1 0 40 24.29a11.43 11.43 0 0 0-11.43-11.43zm0 21.43a10 10 0 1 1 10-10 10 10 0 0 1-10 10z"/></g></g></g></svg>

<svg xmlns="http://www.w3.org/2000/svg" viewBox="0 0 40 35.71"><defs><style>.cls-1{fill:#fff;}</style></defs><title>ic_1 mining</title><g id="Layer_2" data-name="Layer 2"><g id="Режим_изоляции" data-name="Режим изоляции"><g id="coin-7"><path class="cls-1" d="M20,33.84v.45H8.57V30h8.5a14,14,0,0,1-.61-1.43H5.71V24.29h10a13.39,13.39,0,0,1,.09-1.43H7.14V18.57h9.93a13.54,13.54,0,0,1,.82-1.43H8.57V12.86H20v1.87a12,12,0,0,1,1.43-1.13v-.74h1.28a12.84,12.84,0,0,1,4.43-1.35V5.71H24.29V0H1.43V7.14H4.29v4.29H2.86v5.71H1.43v5.72H0V30H2.86v5.71H22.71A12.34,12.34,0,0,1,20,33.84ZM10,11.43V7.14H21.43v4.29ZM25.71,7.14v4.29H22.86V7.14h2.85ZM22.86,1.43V5.71H20V1.43Zm-4.29,0V5.71H7.14V1.43ZM2.86,5.71V1.43H5.71V5.71H2.86ZM5.71,7.14H8.57v4.29H5.71ZM4.29,12.86H7.14v4.28H4.29ZM2.86,18.57H5.71v4.29H2.86Zm-1.43,10V24.29H4.29v4.28H1.43Zm2.86,5.72V30H7.14v4.29Z"/><path class="cls-1" d="M28.57,12.86A11.43,11.43,0,1,0,40,24.29,11.43,11.43,0,0,0,28.57,12.86Zm0,21.43a10,10,0,1,1,10-10A10,10,0,0,1,28.57,34.29Z"/></g></g></g></svg>
